img/croix_red.svg

<?xml version="1.0" encoding="UTF-8" standalone="no"?>
<svg xmlns:svg="http://www.w3.org/2000/svg" xmlns="http://www.w3.org/2000/svg" version="1.0" width="660" height="660">
<path d="m 230,0 0,230 -230,0 0,200 230,0 0,230 200,0 0,-230 230,0 0,-200 -230,0 0,-230 -200,0 z" id="rect5" style="fill:#ff0000"/></svg>

<?xml version="1.0" encoding="UTF-8" standalone="no"?>
<svg
   version="1.0"
   width="128"
   height="128"
   id="svg3"
   sodipodi:docname="croix_source.svg"
   inkscape:version="1.2.2 (b0a8486541, 2022-12-01)"
   xmlns:inkscape="http://www.inkscape.org/namespaces/inkscape"
   xmlns:sodipodi="http://sodipodi.sourceforge.net/DTD/sodipodi-0.dtd"
   xmlns="http://www.w3.org/2000/svg"
   xmlns:svg="http://www.w3.org/2000/svg">
  <defs
     id="defs7" />
  <sodipodi:namedview
     id="namedview5"
     pagecolor="#ffffff"
     bordercolor="#666666"
     borderopacity="1.0"
     inkscape:showpageshadow="2"
     inkscape:pageopacity="0.0"
     inkscape:pagecheckerboard="0"
     inkscape:deskcolor="#d1d1d1"
     showgrid="false"
     inkscape:zoom="1.1848485"
     inkscape:cx="64.565217"
     inkscape:cy="64.143223"
     inkscape:window-width="1920"
     inkscape:window-height="1043"
     inkscape:window-x="0"
     inkscape:window-y="0"
     inkscape:window-maximized="1"
     inkscape:current-layer="svg3" />
  <path
     d="M 230,0 V 230 H 0 V 430 H 230 V 660 H 430 V 430 H 660 V 230 H 430 V 0 Z"
     id="rect5"
     style="fill:#ff0000;stroke-width:5.15625"
     transform="scale(0.19393939)" />
</svg>
